Gurmukhi/0A4D.svg

<svg enable-background="new 0 0 336 592" viewBox="0 0 336 592" xmlns="http://www.w3.org/2000/svg"><path d="m220.069611 427.972504c5.600998 8.706054 10.879776 17.197967 16.454406 25.490966 2.365662 3.519257 1.806061 5.721863-1.880172 7.475037-1.047013.497955-2.057465 1.123383-2.97583 1.831513-2.584671 1.993103-4.277314 1.3638-6.044922-1.320984-3.844376-5.839203-8.076813-11.421296-12.001236-17.209717-13.112564-19.34079-32.058853-24.204773-53.852417-21.447632-4.564347.577454-6.847138-.154022-7.654709-4.935455-.856507-5.071228-2.304367-10.042389-3.489212-15.05835-.531235-2.24884-.335633-3.838043 2.600311-4.12503 10.301605-1.006958 20.581619-1.567841 30.867279.144592 12.894821 2.146881 22.554886 9.398804 30.508637 19.316467 2.500625 3.118103 4.847885 6.359192 7.467865 9.838593z"/></svg>

<svg version="1.1" id="Layer_1" xmlns="http://www.w3.org/2000/svg" xmlns:xlink="http://www.w3.org/1999/xlink" x="0px" y="0px"
	 width="100%" viewBox="0 0 336 592" enable-background="new 0 0 336 592" xml:space="preserve">
<path fill="#000000" opacity="1.000000" stroke="none" 
	d="
M220.069611,427.972504 
	C225.670609,436.678558 230.949387,445.170471 236.524017,453.463470 
	C238.889679,456.982727 238.330078,459.185333 234.643845,460.938507 
	C233.596832,461.436462 232.586380,462.061890 231.668015,462.770020 
	C229.083344,464.763123 227.390701,464.133820 225.623093,461.449036 
	C221.778717,455.609833 217.546280,450.027740 213.621857,444.239319 
	C200.509293,424.898529 181.563004,420.034546 159.769440,422.791687 
	C155.205093,423.369141 152.922302,422.637665 152.114731,417.856232 
	C151.258224,412.785004 149.810364,407.813843 148.625519,402.797882 
	C148.094284,400.549042 148.289886,398.959839 151.225830,398.672852 
	C161.527435,397.665894 171.807449,397.105011 182.093109,398.817444 
	C194.987930,400.964325 204.647995,408.216248 212.601746,418.133911 
	C215.102371,421.252014 217.449631,424.493103 220.069611,427.972504 
z"/>
</svg>
